X: 02082
T: MISS COS'S POLKA
C: Bob McQuillen Feb'76
B: Bob's Note Book 1&2 #82
R: polka
Z: 2019 John Chambers <jc:trillian.mit.edu>
M: C
L: 1/8
K: G
GA \
| B2B2 BABc | B2G2 G2Bc | B2A2 A2GA | B2d2 d2c2 \
| B2B2 BABc | B2G2 G2Bc | B2A2 G2F2 | G6 :|
|: GA \
| B2B2 BABc | B2G2 G2Bc | B2A2 AFGA | B2E2 E2GA \
| BABc BABc | B2E2 EFGA | B2A2 G2F2 | E6 :|
|: Bc \
| d2d2 dBcd | e2d2 d2de | d2c2 cBcd | c2B2 BABc \
| d2d2 dBcd | e2d2 d2de | d2c2 B2A2 | G6 :|
%%begintext align
%% For Miss Margaret Costell of
%% Camp Union, Greenfield, N.H.
%%endtext

%%sep 1 1 500

%%sep 1 1 500

